www/assets/images/test_icons/flags/PT.svg

<svg fill="none" height="15" viewBox="0 0 21 15" width="21" xmlns="http://www.w3.org/2000/svg" xmlns:xlink="http://www.w3.org/1999/xlink"><mask id="a" height="15" maskUnits="userSpaceOnUse" width="21" x="0" y="0"><path d="m19 0h-17c-1.10457 0-2 .89543-2 2v11c0 1.1046.89543 2 2 2h17c1.1046 0 2-.8954 2-2v-11c0-1.10457-.8954-2-2-2z" fill="#fff"/></mask><g mask="url(#a)"><path d="m19 0h-17c-1.10457 0-2 .89543-2 2v11c0 1.1046.89543 2 2 2h17c1.1046 0 2-.8954 2-2v-11c0-1.10457-.8954-2-2-2z" fill="#f00"/><path clip-rule="evenodd" d="m0 0h7v15h-7z" fill="#006700" fill-rule="evenodd"/><path d="m7 10c1.65685 0 3-1.34315 3-3s-1.34315-3-3-3-3 1.34315-3 3 1.34315 3 3 3z" fill="#ff0"/><g clip-rule="evenodd" fill-rule="evenodd"><path d="m9 8v-3h-4v3c0 .552.895 1 2 1s2-.448 2-1z" fill="#f00"/><path d="m6 6h2v2h-2z" fill="#fff"/><path d="m6 6h1v1h-1zm1 1h1v1h-1z" fill="#002e9c"/></g><path d="m19 .5h-17c-.82843 0-1.5.67157-1.5 1.5v11c0 .8284.67157 1.5 1.5 1.5h17c.8284 0 1.5-.6716 1.5-1.5v-11c0-.82843-.6716-1.5-1.5-1.5z" stroke="#000" stroke-opacity=".1"/></g></svg>

<svg width="21" height="15" viewBox="0 0 21 15" fill="none" xmlns="http://www.w3.org/2000/svg">
<mask id="mask0_3_67" style="mask-type:alpha" maskUnits="userSpaceOnUse" x="0" y="0" width="21" height="15">
<path d="M19 0H2C0.89543 0 0 0.89543 0 2V13C0 14.1046 0.89543 15 2 15H19C20.1046 15 21 14.1046 21 13V2C21 0.89543 20.1046 0 19 0Z" fill="white"/>
</mask>
<g mask="url(#mask0_3_67)">
<path d="M19 0H2C0.89543 0 0 0.89543 0 2V13C0 14.1046 0.89543 15 2 15H19C20.1046 15 21 14.1046 21 13V2C21 0.89543 20.1046 0 19 0Z" fill="#FF0000"/>
<path fill-rule="evenodd" clip-rule="evenodd" d="M0 0H7V15H0V0Z" fill="#006700"/>
<path d="M7 10C8.65685 10 10 8.65685 10 7C10 5.34315 8.65685 4 7 4C5.34315 4 4 5.34315 4 7C4 8.65685 5.34315 10 7 10Z" fill="#FFFF00"/>
<path fill-rule="evenodd" clip-rule="evenodd" d="M9 8V5H5V8C5 8.552 5.895 9 7 9C8.105 9 9 8.552 9 8Z" fill="#FF0000"/>
<path fill-rule="evenodd" clip-rule="evenodd" d="M6 6H8V8H6V6Z" fill="white"/>
<path fill-rule="evenodd" clip-rule="evenodd" d="M6 6H7V7H6V6ZM7 7H8V8H7V7Z" fill="#002E9C"/>
<path d="M19 0.5H2C1.17157 0.5 0.5 1.17157 0.5 2V13C0.5 13.8284 1.17157 14.5 2 14.5H19C19.8284 14.5 20.5 13.8284 20.5 13V2C20.5 1.17157 19.8284 0.5 19 0.5Z" stroke="black" stroke-opacity="0.1"/>
</g>
</svg>
